assets/jetbrains/mono.svg

<svg viewBox="0 0 24 24" xmlns="http://www.w3.org/2000/svg"><path d="m2.345 23.997a2.347 2.347 0 0 1 -2.345-2.345v-10.664c0-1.323.535-2.618 1.473-3.555l5.965-5.961a5.01 5.01 0 0 1 3.551-1.472h10.666a2.347 2.347 0 0 1 2.345 2.345v10.664a5.056 5.056 0 0 1 -1.473 3.554l-5.965 5.965a5.017 5.017 0 0 1 -3.555 1.472v-.003zm8.969-6.854h-5.828v1.371h5.828zm-7.351-10.629h13.523v13.519l4.257-4.257a3.936 3.936 0 0 0 1.146-2.767v-10.664c0-.678-.552-1.234-1.234-1.234h-10.666a3.897 3.897 0 0 0 -2.767 1.145zm-.192.192-1.515 1.514a3.944 3.944 0 0 0 -1.145 2.768v10.664c0 .678.552 1.234 1.234 1.234h10.666a3.9 3.9 0 0 0 2.767-1.146l1.512-1.511h-13.519z"/></svg>

<svg xmlns="http://www.w3.org/2000/svg" viewBox="0 0 24 24"><path d="M2.345 23.997A2.347 2.347 0 0 1 0 21.652V10.988C0 9.665.535 8.37 1.473 7.433l5.965-5.961A5 5 0 0 1 10.989 0h10.666A2.347 2.347 0 0 1 24 2.345v10.664a5.06 5.06 0 0 1-1.473 3.554l-5.965 5.965A5.02 5.02 0 0 1 13.007 24v-.003zm8.969-6.854H5.486v1.371h5.828zM3.963 6.514h13.523v13.519l4.257-4.257a3.94 3.94 0 0 0 1.146-2.767V2.345c0-.678-.552-1.234-1.234-1.234H10.989a3.9 3.9 0 0 0-2.767 1.145zm-.192.192L2.256 8.22a3.94 3.94 0 0 0-1.145 2.768v10.664c0 .678.552 1.234 1.234 1.234h10.666a3.9 3.9 0 0 0 2.767-1.146l1.512-1.511H3.771z"/></svg>
